src/assets/jarvisAvatar.svg

<svg width="820" height="820" fill="none" xmlns="http://www.w3.org/2000/svg"><rect width="820" height="820" rx="133" fill="#F66711"/><path d="M560.681 672.011H258.318a64.895 64.895 0 01-64.82-64.82V401.032c0-88.8 72.247-161.047 161.047-161.047h109.932c88.8 0 161.047 72.247 161.047 161.047v206.159a64.899 64.899 0 01-64.843 64.82zM354.534 273.09a128.089 128.089 0 00-127.942 127.942v206.159a31.747 31.747 0 0031.726 31.715h302.363a31.75 31.75 0 0031.715-31.715V401.032a128.086 128.086 0 00-127.93-127.942H354.534z" fill="#fff"/><path d="M626.705 521.293H608.96a16.552 16.552 0 01-16.552-16.553v-97.484a16.554 16.554 0 0116.552-16.553h17.745a65.298 65.298 0 0146.171 19.124 65.298 65.298 0 010 92.341 65.295 65.295 0 01-46.171 19.125zm-1.192-33.106h1.192a32.187 32.187 0 100-64.379h-1.192v64.379zM210.04 521.293h-17.745a65.295 65.295 0 010-130.59h17.745a16.552 16.552 0 0116.552 16.553v97.484a16.556 16.556 0 01-16.552 16.553zm-17.745-97.485a32.19 32.19 0 000 64.379h1.192v-64.379h-1.192zM409.5 273.09a16.556 16.556 0 01-16.553-16.553v-66.486a16.554 16.554 0 0128.258-11.705 16.554 16.554 0 014.848 11.705v66.486A16.554 16.554 0 01409.5 273.09z" fill="#fff"/><path d="M409.5 206.603a49.796 49.796 0 01-46.019-30.735 49.797 49.797 0 01-2.838-28.775 49.795 49.795 0 0139.126-39.135 49.795 49.795 0 0151.127 21.174 49.8 49.8 0 018.394 27.67 49.846 49.846 0 01-49.79 49.801zm0-66.486a16.693 16.693 0 00-16.387 19.95 16.697 16.697 0 0033.072-3.265 16.708 16.708 0 00-16.685-16.685zm83.105 398.92h-33.237a16.554 16.554 0 01-16.553-16.552 16.554 16.554 0 0116.553-16.553h33.237a16.553 16.553 0 110 33.105z" fill="#fff"/><path d="M559.093 539.037h-33.238a16.554 16.554 0 01-16.553-16.552 16.554 16.554 0 0116.553-16.553h33.238a16.552 16.552 0 010 33.105zm0-66.486h-33.238a16.551 16.551 0 01-16.553-16.553 16.556 16.556 0 0116.553-16.553h33.238a16.552 16.552 0 010 33.106zm49.867 132.973H210.04a16.553 16.553 0 110-33.105h398.92a16.553 16.553 0 110 33.105zm-282.566-83.106a16.544 16.544 0 01-11.708-4.855l-49.868-49.857a16.547 16.547 0 01-4.844-11.708v-41.559a58.165 58.165 0 0158.111-58.1h116.343a58.12 58.12 0 0141.608 16.733 58.122 58.122 0 0117.304 41.373 58.101 58.101 0 01-17.304 41.373 58.12 58.12 0 01-41.608 16.733h-65.935l-28.327 42.496a16.56 16.56 0 01-5.251 5.005 16.562 16.562 0 01-6.888 2.278c-.551.055-1.092.088-1.633.088zm-33.315-73.317l30.744 30.733 22.07-33.106a16.565 16.565 0 0113.772-7.371h74.797a25.001 25.001 0 0023.576-15.31 24.998 24.998 0 000-19.381 24.996 24.996 0 00-23.576-15.309H318.085a25.025 25.025 0 00-25.006 24.994v34.75z" fill="#fff"/></svg>

<svg width="820" height="820" viewBox="0 0 820 820" fill="none" xmlns="http://www.w3.org/2000/svg">
<rect width="820" height="820" rx="133" fill="#F66711"/>
<path d="M560.681 672.011H258.318C241.133 671.991 224.657 665.155 212.506 653.003C200.354 640.851 193.518 624.376 193.498 607.191V401.032C193.498 312.232 265.745 239.985 354.545 239.985H464.477C553.277 239.985 625.524 312.232 625.524 401.032V607.191C625.503 624.38 618.665 640.858 606.508 653.011C594.352 665.163 577.87 671.996 560.681 672.011ZM354.534 273.09C320.613 273.128 288.093 286.62 264.107 310.605C240.122 334.591 226.63 367.111 226.592 401.032V607.191C226.601 615.601 229.946 623.665 235.895 629.611C241.843 635.557 249.907 638.9 258.318 638.906H560.681C569.09 638.897 577.152 635.553 583.098 629.607C589.043 623.661 592.388 615.599 592.396 607.191V401.032C592.358 367.113 578.868 334.594 554.885 310.609C530.902 286.624 498.384 273.131 464.466 273.09H354.534Z" fill="white"/>
<path d="M626.705 521.293H608.96C604.57 521.293 600.36 519.549 597.256 516.445C594.152 513.34 592.408 509.13 592.408 504.74V407.256C592.408 402.866 594.152 398.655 597.256 395.551C600.36 392.447 604.57 390.703 608.96 390.703H626.705C644.022 390.703 660.63 397.582 672.876 409.827C685.121 422.073 692 438.681 692 455.998C692 473.315 685.121 489.923 672.876 502.168C660.63 514.414 644.022 521.293 626.705 521.293ZM625.513 488.187H626.705C635.242 488.187 643.43 484.796 649.466 478.759C655.503 472.723 658.895 464.535 658.895 455.998C658.895 447.461 655.503 439.273 649.466 433.236C643.43 427.2 635.242 423.808 626.705 423.808H625.513V488.187ZM210.04 521.293H192.295C174.978 521.293 158.37 514.414 146.124 502.168C133.879 489.923 127 473.315 127 455.998C127 438.681 133.879 422.073 146.124 409.827C158.37 397.582 174.978 390.703 192.295 390.703H210.04C214.43 390.703 218.64 392.447 221.744 395.551C224.848 398.655 226.592 402.866 226.592 407.256V504.74C226.592 509.13 224.848 513.34 221.744 516.445C218.64 519.549 214.43 521.293 210.04 521.293ZM192.295 423.808C183.758 423.808 175.57 427.2 169.534 433.236C163.497 439.273 160.105 447.461 160.105 455.998C160.105 464.535 163.497 472.723 169.534 478.759C175.57 484.796 183.758 488.187 192.295 488.187H193.487V423.808H192.295ZM409.5 273.09C405.11 273.09 400.9 271.346 397.795 268.242C394.691 265.138 392.947 260.927 392.947 256.537V190.051C392.947 185.661 394.691 181.45 397.795 178.346C400.9 175.242 405.11 173.498 409.5 173.498C413.89 173.498 418.1 175.242 421.205 178.346C424.309 181.45 426.053 185.661 426.053 190.051V256.537C426.053 260.927 424.309 265.138 421.205 268.242C418.1 271.346 413.89 273.09 409.5 273.09Z" fill="white"/>
<path d="M409.5 206.603C399.649 206.606 390.02 203.687 381.828 198.216C373.637 192.745 367.252 184.967 363.481 175.868C359.71 166.768 358.722 156.754 360.643 147.093C362.563 137.431 367.305 128.556 374.27 121.59C381.234 114.625 390.108 109.88 399.769 107.958C409.43 106.035 419.444 107.021 428.544 110.79C437.645 114.559 445.424 120.942 450.896 129.132C456.369 137.322 459.29 146.951 459.29 156.802C459.279 170.004 454.029 182.663 444.695 192C435.36 201.337 422.702 206.589 409.5 206.603ZM409.5 140.117C406.197 140.114 402.967 141.092 400.22 142.926C397.472 144.76 395.331 147.367 394.066 150.418C392.8 153.47 392.469 156.827 393.113 160.067C393.757 163.307 395.347 166.283 397.683 168.619C400.018 170.954 402.994 172.545 406.234 173.189C409.474 173.833 412.832 173.501 415.883 172.236C418.934 170.971 421.542 168.829 423.376 166.082C425.209 163.334 426.187 160.105 426.185 156.802C426.179 152.378 424.419 148.138 421.291 145.01C418.164 141.882 413.923 140.122 409.5 140.117ZM492.605 539.037H459.368C454.978 539.037 450.767 537.293 447.663 534.189C444.559 531.085 442.815 526.875 442.815 522.485C442.815 518.095 444.559 513.884 447.663 510.78C450.767 507.676 454.978 505.932 459.368 505.932H492.605C496.996 505.932 501.206 507.676 504.31 510.78C507.414 513.884 509.158 518.095 509.158 522.485C509.158 526.875 507.414 531.085 504.31 534.189C501.206 537.293 496.996 539.037 492.605 539.037Z" fill="white"/>
<path d="M559.093 539.037H525.855C521.465 539.037 517.254 537.293 514.15 534.189C511.046 531.085 509.302 526.875 509.302 522.485C509.302 518.095 511.046 513.884 514.15 510.78C517.254 507.676 521.465 505.932 525.855 505.932H559.093C563.483 505.932 567.693 507.676 570.797 510.78C573.901 513.884 575.645 518.095 575.645 522.485C575.645 526.875 573.901 531.085 570.797 534.189C567.693 537.293 563.483 539.037 559.093 539.037ZM559.093 472.551H525.855C521.465 472.551 517.254 470.807 514.15 467.702C511.046 464.598 509.302 460.388 509.302 455.998C509.302 451.608 511.046 447.398 514.15 444.293C517.254 441.189 521.465 439.445 525.855 439.445H559.093C563.483 439.445 567.693 441.189 570.797 444.293C573.901 447.398 575.645 451.608 575.645 455.998C575.645 460.388 573.901 464.598 570.797 467.702C567.693 470.807 563.483 472.551 559.093 472.551ZM608.96 605.524H210.04C205.649 605.524 201.439 603.78 198.335 600.676C195.231 597.572 193.487 593.362 193.487 588.972C193.487 584.581 195.231 580.371 198.335 577.267C201.439 574.163 205.649 572.419 210.04 572.419H608.96C613.351 572.419 617.561 574.163 620.665 577.267C623.769 580.371 625.513 584.581 625.513 588.972C625.513 593.362 623.769 597.572 620.665 600.676C617.561 603.78 613.351 605.524 608.96 605.524ZM326.394 522.418C324.219 522.418 322.066 521.989 320.057 521.156C318.048 520.323 316.223 519.102 314.686 517.563L264.818 467.706C263.281 466.168 262.062 464.343 261.231 462.334C260.4 460.325 259.973 458.172 259.974 455.998V414.439C259.991 399.034 266.12 384.264 277.014 373.372C287.908 362.48 302.679 356.354 318.085 356.339H434.428C442.126 356.233 449.769 357.658 456.911 360.53C464.054 363.403 470.555 367.666 476.036 373.072C481.517 378.478 485.869 384.92 488.84 392.022C491.811 399.124 493.34 406.746 493.34 414.445C493.34 422.144 491.811 429.766 488.84 436.868C485.869 443.97 481.517 450.412 476.036 455.818C470.555 461.224 464.054 465.487 456.911 468.36C449.769 471.232 442.126 472.657 434.428 472.551H368.493L340.166 515.047C338.807 517.083 337.014 518.792 334.915 520.052C332.816 521.311 330.463 522.089 328.027 522.33C327.476 522.385 326.935 522.418 326.394 522.418ZM293.079 449.101L323.823 479.834L345.893 446.728C347.405 444.461 349.453 442.602 351.855 441.316C354.258 440.03 356.94 439.357 359.665 439.357H434.462C437.789 439.427 441.097 438.832 444.191 437.607C447.285 436.382 450.104 434.552 452.482 432.223C454.86 429.895 456.749 427.115 458.038 424.047C459.328 420.979 459.992 417.685 459.992 414.357C459.992 411.029 459.328 407.734 458.038 404.666C456.749 401.598 454.86 398.819 452.482 396.49C450.104 394.162 447.285 392.332 444.191 391.107C441.097 389.882 437.789 389.287 434.462 389.357H318.085C311.457 389.362 305.101 391.997 300.413 396.683C295.726 401.369 293.088 407.723 293.079 414.351V449.101Z" fill="white"/>
</svg>
